X:4
T:Dans An Dro
R:an dro
O:Bretagne
Z:id:hn-andro-4
M:2/4
L:1/16
Q:1/4=100
K:Em
E2B2 B2AB | c2B2 AGFG | A2F2 B2AG |1 FGEF G3F :|2 FEFG E4 ||
|: E2E2 F2GF | E2E2 FEFG | A2F2 B2AG |1 FGEF G3F :|2 FEFG E4 ||

